X: 1188
T: An Comhra Donn
R: hornpipe
M: 4/4
K: Dmajor
|:FG|ABAG FAde|fgfe dcdA|BGdB AFDE|FEED E2FG|
ABAG FAde|fgfe dcdA|BGdB AF (3EFG|F2D2 D2:|
|:fg|ag (3fed gfec|dcde fdAF|GA (3BAG FADF|!1!E!1!f!2!g!1!f e2fg|
"Variation 1" z4 z4 z4 z4|z4z4 z4 z4|GA (3BAG FADF|!1!E!2!f!3!g!2!f e2fg|
"Variation 2" z4 z4 z4 z4|z4z4 z4 z4|GA (3BAG FADF|Eegf e2fg|
"Variation 3" z4 z4 z4 z4|z4z4 z4 z4|GA (3BAG FADF|(3EBe gf e2fg|
ag (3fed gfec|dcde fdAF|GA (3BAG (3FGA EG|F2D2 D2:|

